-----BEGIN PGP PUBLIC KEY BLOCK-----

mQINBGqdVpgBEACuKoCgLWreZQEBh5OOj0QZ9hTCWlODgWFfNg7LAfsQGj9EPCb0
b8OA3RRuOn5HHSGAeumnTs07LJg4cSjtRPBbSmijn3a2Rf5f43Z2z/jRBGLmJdeI
+XJX6VQVc9YilTslnu2IOw/TGOYkG0XhaGi4pqwHJUreTxh8bB3IQt2T6TRmcdBE
kPK5tEMYWmuo1d14Yb9+rEBeT/blw51dMREig/BwHbE83JsiyOQehD+EU3WVlQBB
E77aUjEmEoveBID+e+O1/yefp8cc/672zYD69chYOlFw7Qge0Vr0OEExTlkcHc/Z
wr6wVJ9dDcUKkIWDDJ5hyay2yTMJmJo5MAiSAOrgqqhquiybVnlHPCTkXrDMrBQS
j3ApzocvEJsVrGc5FxXU/R1QqOOqxqAaINmNzc6bq+KVsA3Or1sh7nMZgi8dsVU/
Q/GVQOa2vee0XzA/orlu2ckrgKfopcaO4IwV4Ahx70vRLk1kzNyx6MWuCN9o5ll+
aCz33HMwjNuXt95Fxb0lN2ov9IoxODijrzARCy5jq5YrLJ3T/Y+aBNImoFLrEZlI
g5K8s8nWzpksiO166fprqHpkZ92d3z3uPAYmXfyWb1saqyvW87dwOc4UFxGOzFlg
LA2D8qbFeY40qgF94M0C8ApcQG6nglL+Y+m4sW5ytMTL4w6fT9HdwU1JpQARAQAB
tDhGbHVpZFN0YWNrIFRlcnJhZm9ybSBQcm92aWRlciBTaWduaW5nIDxqYkBmbHVp
ZHN0YWNrLmlvPokCbgQTAQgAWBYhBPNcwEm5I7AqRJSVOaRhWH8RFpnpBQJqnVaY
GxSAAAAAAAQADm1hbnUyLDIuNSsxLjEyLDAsMwMbLwQFCwkIBwICIgIGFQoJCAsC
BBYCAwECHgcCF4AACgkQpGFYfxEWmekJZw/+PwIJS4Ozj1PwIjmrdR0WAdXIdSlg
444lSRfnpj3N63ZQaiDBcm0Xl+p0ITwt4osCyqgKEg7sS9OcoCTK3n1v5vdxnyTC
ZbbCZQq6U4AkXwE2cs8sw+502djijD/ZP4ISX4GB7OvCfo8hRbO+yH0O+YZ13ceT
T0mHHHsJS54kwZ6Mt1TsEjm3jB7tuY0fduAPUCp87kgTUVbzoMUBUJpdDGQgajAo
syKABsLI2yKciv5DTWN+BDCkFLhZxOr06pp9wuV302Cy7JGK105VowtZP06hb7CU
aZ/bee5+u/yPvgetDQrFICqB/e3F0KnoeQ4hWz0Zd/5gXBLvO8PLJ3oYUnoEpfsz
KTha22BaSoy4tyWgndtlMsQD/xW7FyVvZrNyBLa66SlTh/RNhCWEnbc4BBzgUD0Y
2ns6LoR+Dcn69tIXVsuLHww0KgdRCGZpV+7o4kdaWzGwnZP7LVg2w4GrVzJjl6+7
qPcP0Ft5n9jwlouhB0IXT7VXL/O8KMJaX4U3qJ3DAyKh0cpxH/RUfyvh9gLjAhq6
ba4Q+rIGefvqNX85JrFWAyH1gRygXNHZhyj2pBVAeqgEkUgMs/NoqLghvGBbUW44
55AQ/gGY6iPsTQGQ5eXmDwd6rPeIBCzlyvLBJ8ljT0TEoUz3I4FTs3aaqpaSouZf
X3vROaShayFQ2NG5Ag0Eap1WmAEQAK8cgeP4W6a/hC3b1XrjfHxa8r2NGm64TJpP
Fb/uX2cL8Yj071azW3Oy8yEJoxajKu3HKHya6myqD44tMUBL3V7wUiUfq64klk+9
9Lo+t2jne/jcNzRL/P77C63AYC0MqsBNdJetNSMVVBKj26bvgUCOJ5ROJZTpXFEL
69dKjuk8fN/nT9nXgk72rWPHe5oz5UPRTElyN2MEkCU7Dgc9Hug/4nYGSBmwc84O
SipDDoS1hNNA0+jtdDwqmh087HEYIGtw5Ta/s05dxE41GKjZ9Ufns2e0o+TCwgYZ
Eh+yNYZboeNA9qLgMxPlxzTyIn1VZzWuBKxOxZ3KVbFcBKgJlK1fNp9AVd9XANc9
6aXtmT+eF991XpwYmhLsnzpuGi5XhXpBWGcVeH1icBe9j3P8egwtcg69oWTCYBDD
qFEJsKu08DUj0A0pOYn2Cz7xtJyb1Nss0cdiXdphgya73IioKwet2grCqFR7tuIt
RiKxvN0voFlYgpZw71eP08ea4qvAJ8oLHe7dLFSq/vfkfBGsY7J47Nsgf0Zwht+2
voBjzaPakJElEjJ53xl//+voad8iGxegBXFRMlGkUGof2XoMqOzHGpLtlOMnhtyX
ztsR8KgvHMwm7N7Ztb/7cuSWO5ZREMiAZNYbK/fsHb1oiP/Ra9kGL1EgDN8m91Ol
Juqe3qu3ABEBAAGJBIgEGAEIADwWIQTzXMBJuSOwKkSUlTmkYVh/ERaZ6QUCap1W
mBsUgAAAAAAEAA5tYW51MiwyLjUrMS4xMiwwLDMCGy4CQAkQpGFYfxEWmenBdCAE
GQEIAB0WIQSzqt741i3Ya3nc5VyT2g1n/dXS7wUCap1WmAAKCRCT2g1n/dXS7/df
D/49MATa+t9sQ1TOpi0jvarJNHYsc+Fx/a4ck5GZ9vStEGz+Ds1RU1m1o43c2Lqo
7XPMg3e0J0lIPT9imJfn/IoQKLdQkAHQ98/2jbaxqgIM3HA0xh/L44NVDzbAXhGw
BtlLwJaQ5agGf41GeT9zoomQLbanyFN8bzbZTSyOA458ZMvOiECmtV5VCqb37uhx
CqQCfWlrXbQjVPXhrhgk+1X3/W6LbP4bdUSSUJWOjJMhgcUCboNFVjXx54ctBuKR
j+8PFJk6bP3wsju11vRAadsEJClhSAiQ8PN67DqTPN/UgnjaFoU7/g2RTwQ9oFIp
ceYKNf8AXKZY0Z+fJVH5gplMRI4OYCMU2jOim74S4zzJyHLmTS8b75LjEIQiW/UO
Zxl+gCu/yHlnxFPyStLOlpP+pPHzG53zXrfFadFlar/+Jc7hB8hhjWHAo/UDxDad
TvsD17r1lxtGcZPWy2nArcKDBkrdCljN9+zFA8h57lSqKVNvfmM+K1zoL0aG5WqX
RHrowIxNlyVYoL08TyLSYzEM8+UTxxnk8gZKHbDhsItUGbIWE64/m1Tjkvk0mlYt
ZEMyTnTXtBSfR5ThF+elXicwqlX2HarxfyEJdgGqXlmbVuQ3w+5NVLOR1zv7Qvxv
0jYeXo9hmswx8mjH9wE7HR2idGeIvvONZL9IIdG2ZNe8nT/HD/4hMjmEbLZwGJ71
X97BhDGpSQWOv2sMBBN28AouoCZTV9plZXt8gkgQpM6ahKpi9MKR0oQ47J03z7rh
J5GmOax30+g2ZeJbdDmGFNUImbQDLVa1g3rnfWlZmV77yqxNUMIOnTXRurZY9uHd
OldyNFs4gi+lpaQ9h6u397qf/OIaqlDH7eN76IS3cZoPjKjurDLxtSEYZ++SDaaB
M+rTmiZWbXPZtgddYpXncywmDgZ+FhhKfyntH9ICUBHDsEFDyV6+BWBLcgYeYIo6
+kA2Nc8o75EFP5Fz6QIkBovHv38MGKTSdTr8ww1wL7IQLitCB3iBOchWVc1aBwpb
WizxJQnFHEEoat2eXf+F1PeX+M00lSmRawgw8udwK44r1mfaJ44wrI92/1L7FTFp
yvUThiARR9aBH4Mvrd6R5rHRepOXLjFBnkBy2YGa91X4/UDER0M6YPMyig25TzVf
Vmt5oucglOsZ/JtrctGEF0k0KHMihg/4A+i1UsRUODTaY0j+PS6JGnTAPTab/S13
lNiZk78VtGSYCkH3vh9iZQsLPJtEHFnTdBngVVYVtUA5hak36Z4TjZgBMaAVgK4F
P32loN4E7ISv8ShZ02LjOIgvAYIkGhFC0NzNN3Nyxrtn4+T815djj/p7UBNC/jJ3
2+ZNrjpVBRqzCMmEy0eT07f9pUTW7A==
=FOXW
-----END PGP PUBLIC KEY BLOCK-----
